dist/svg/static/content-activities-large.svg

<svg xmlns="http://www.w3.org/2000/svg" width="48" height="48" viewBox="0 0 48 48"><path d="M45.5 38.5h-34a3 3 0 0 1-3-3v-9l-6-6 6-6v-5h34a3 3 0 0 1 3 3v26zM16 28.5h23M16 18.495h23" fill="none" stroke="currentColor" stroke-miterlimit="10"/></svg>

<?xml version="1.0" encoding="UTF-8" standalone="no"?>
<svg width="48px" height="48px" viewBox="0 0 48 48" version="1.1" xmlns="http://www.w3.org/2000/svg" xmlns:xlink="http://www.w3.org/1999/xlink">
    <!-- Generator: sketchtool 46.2 (44496) - http://www.bohemiancoding.com/sketch -->
    <title>content-activities-large</title>
    <desc>Created with sketchtool.</desc>
    <defs></defs>
    <g id="icons-published" stroke="none" stroke-width="1" fill="none" fill-rule="evenodd">
        <g id="briefing" transform="translate(-864.000000, -410.000000)"></g>
        <g id="content-activities-large" stroke="#000000">
            <path d="M45.5,38.5 L11.5,38.5 C9.8,38.5 8.5,37.2 8.5,35.5 L8.5,26.5 L2.5,20.5 L8.5,14.5 L8.5,9.5 L42.5,9.5 C44.2,9.5 45.5,10.8 45.5,12.5 L45.5,38.5 Z M16,28.5 L39,28.5 L16,28.5 Z M16,18.5 L39,18.5 L16,18.5 Z" id="Shape"></path>
        </g>
    </g>
</svg>
